X:55
T:Archie Menzies
R:Reel
D:Irish Dancing Tape (P. Acc)
Z:Adrian Scahill irtrad-l 2001-05-15
M:4/4
L:1/8
K:F
F2CF AFEF|Acde fcAF|(3GAG DG BDGB|gefd cBAG|\
(3FGF CF AFEF|Acde fcAF|B2GB (3ABA FA|1 GFEG F2AG:|2 GFEG F2c2||\
f2cf afef|cfag fe(3de^f|g2dg bg^fg|dgba g=fed|\
cff2 afef|cfag fedc|B2GB (3ABA FA|GFEG F2c2:||
